X: 252
M: 3/2
L: 1/4
K: Gm
[|\
d>e dc BA | B>c BA G^F | Gg ^fd ga | b d2 =e f2 |\
c>d cd e(d/c/) | B>c Bc d(e/f/) | gf bB AG | F B2 d cB :|
|:\
b a2 d2 g- | g f2 B2 e- | e d2 G2 c- | cB B2 A2 |\

